X: 26228
T: Meelick Team, The
R: jig
M: 6/8
K: Eminor
e3 dBA|BAG ED,B|EGF Eed|BAG ABd|
e3 dBA|BAG ED,B|EGF Eed|BAF E2B:|
e2f gfe|beg fed|Be2 beg|fed e2f|
g2f edB|AFD EGB|e2f ged|BAF E2d:|

